images/icons/whatsapp.svg

<svg width="25" height="26" viewBox="0 0 25 26" fill="none" xmlns="http://www.w3.org/2000/svg">
<path fill-rule="evenodd" clip-rule="evenodd" d="M21.3574 3.9208C20.2043 2.75864 18.8323 1.83713 17.3209 1.20967C15.8095 0.582204 14.1888 0.261257 12.5527 0.265421C5.69189 0.265421 0.106766 5.85608 0.103993 12.7281C0.103993 14.9244 0.676648 17.068 1.76511 18.9588L0 25.4158L6.59871 23.6818C8.42399 24.6766 10.4689 25.1983 12.5471 25.1992H12.5527C19.4121 25.1992 24.9972 19.6085 25 12.7365C25.0047 11.099 24.6852 9.47675 24.06 7.9636C23.4347 6.45045 22.5162 5.07638 21.3574 3.9208ZM12.5527 23.0959H12.5485C10.6954 23.0961 8.87634 22.5969 7.28229 21.6507L6.90514 21.4258L2.98946 22.4545L4.03355 18.6326L3.78812 18.2411C2.75206 16.5896 2.20359 14.6784 2.20604 12.7281C2.20881 7.0167 6.84968 2.37008 12.5568 2.37008C13.916 2.36705 15.2623 2.63397 16.5178 3.15537C17.7733 3.67677 18.913 4.4423 19.871 5.40767C20.8342 6.36842 21.5976 7.51079 22.1171 8.76872C22.6366 10.0267 22.902 11.3752 22.8979 12.7365C22.8951 18.4479 18.2543 23.0959 12.5527 23.0959ZM18.2279 15.3368C17.9159 15.1799 16.3879 14.4274 16.1023 14.3233C15.818 14.2192 15.6114 14.1678 15.4035 14.4788C15.1955 14.7898 14.5992 15.4909 14.4176 15.6991C14.236 15.9073 14.0543 15.9323 13.7437 15.7768C13.4331 15.6214 12.4306 15.2923 11.2424 14.2317C10.3175 13.4056 9.69355 12.3866 9.5119 12.0743C9.33026 11.7619 9.49249 11.5939 9.64918 11.4384C9.78922 11.2996 9.95977 11.0747 10.1151 10.8928C10.2704 10.711 10.3217 10.5818 10.4257 10.3736C10.5297 10.1654 10.4783 9.98348 10.3993 9.828C10.3217 9.67112 9.69909 8.13844 9.4398 7.5151C9.18883 6.91119 8.93232 6.99171 8.74097 6.98338C8.5428 6.97526 8.34447 6.97156 8.14613 6.97227C7.98841 6.9763 7.83323 7.0129 7.69031 7.07979C7.54738 7.14669 7.41981 7.24242 7.31557 7.361C7.02994 7.67336 6.22711 8.42582 6.22711 9.9585C6.22711 11.4912 7.34191 12.9725 7.49721 13.1807C7.65251 13.389 9.69077 16.5335 12.8106 17.8829C13.5538 18.2036 14.1334 18.3952 14.584 18.5395C15.3286 18.7769 16.0066 18.7422 16.5432 18.6631C17.1408 18.5743 18.3832 17.9106 18.6425 17.1832C18.9018 16.4557 18.9018 15.8324 18.8241 15.7019C18.7465 15.5714 18.5371 15.4922 18.2279 15.3368Z" fill="#BDBDBD"/>
</svg>

<svg width="25" height="26" fill="none" xmlns="http://www.w3.org/2000/svg"><path fill-rule="evenodd" clip-rule="evenodd" d="M21.357 3.92A12.365 12.365 0 0012.553.266C5.692.265.107 5.856.104 12.728c0 2.196.573 4.34 1.661 6.23L0 25.417l6.599-1.734a12.441 12.441 0 005.948 1.517h.006c6.86 0 12.444-5.59 12.447-12.463a12.406 12.406 0 00-3.643-8.815zm-8.804 19.176h-.005c-1.853 0-3.672-.5-5.266-1.445l-.377-.225-3.916 1.029 1.045-3.822-.246-.392a10.35 10.35 0 01-1.582-5.513C2.209 7.017 6.85 2.37 12.556 2.37a10.268 10.268 0 017.315 3.038 10.3 10.3 0 013.027 7.328c-.003 5.712-4.644 10.36-10.345 10.36zm5.675-7.76c-.312-.156-1.84-.909-2.126-1.013-.284-.104-.49-.155-.699.156-.208.31-.804 1.012-.985 1.22-.182.208-.364.233-.674.078-.31-.156-1.313-.485-2.502-1.545-.925-.826-1.548-1.845-1.73-2.158-.182-.312-.02-.48.137-.636.14-.138.31-.363.466-.545.155-.182.207-.311.31-.52.105-.208.053-.39-.026-.545-.077-.157-.7-1.69-.96-2.313-.25-.604-.507-.523-.698-.532a13.361 13.361 0 00-.595-.01 1.144 1.144 0 00-.83.388c-.286.312-1.089 1.065-1.089 2.598 0 1.532 1.115 3.014 1.27 3.222.156.208 2.194 3.353 5.314 4.702.743.32 1.322.512 1.773.657.745.237 1.423.202 1.96.123.597-.089 1.84-.752 2.098-1.48.26-.727.26-1.35.182-1.481-.078-.13-.287-.21-.596-.365z" fill="#BDBDBD"/></svg>
